X:1
T:Ye Have Done It unto Me
T:A. B. Bragdon, 1874
T:Ye Have Done It unto Me
T:Public Domain
T:Public Domain
T:Public Domain
T:Public Domain
C:A. B. Bragdon, 1874
Z:Public Domain
%%score 1 2 3
L:1/8
M:4/4
K:D
V:1 treble 
V:2 treble 
V:3 bass 
V:1
"^Solo" F3"^Slow and Soft" G BADE | F6 z2 | G3 F GBAF | E6 z2 | F3 G BAFA | d6 z2 | cBed c2 B2 | %7
w: 1.~Thro’ the bleak and drea- ry|street,|Where the cold winds keen- ly|blow,|See, a child with bare, chilled|feet,|Wan- dering on ’mid ice and|
w: 2.~In an at- tic cold and|bare,|’Mid the drop- ping of the|rain,|See, a wo- man, gaunt and|wan,|Stitch from morn till morn a-|
w: 3.~When you pass the or- phan|by,|With a- vert- ed look of|scorn;|While the lone one toils and|sighs,|Faint and weak from morn to|
 A6 ||[M:3/4]"^Duet" [DF][EG] | [FA]2 [Fd]2 [Bd][GB] | [FA]4 [Ec][Fd] | [Ge]3 [Gc] [FA][EG] | %12
w: snow;|House- less,|home- less, God’s own|Word Shall its|pre- cious com- fort|
w: gain,|Faint- ing,|fam- ished, Christ- ian|man, Does not|God ap- peal to|
w: morn:|Think, there|soon shall come a|day, When thy|God shall say to|
 [DF]4 [Af][Ge] | [Fd]2 [Ac]2 [GB][Bg] | [Af]4 [Ge][Fd] | [Ec][Fd] [Af]2 [Ge]2 | [Fd]6 |] %17
w: be, “As ye|did it un- to|these, Ye have|done it un- to|Me.”|
w: thee, “As ye|did it un- to|these, Ye have|done it un- to|Me.”|
w: thee, “As ye|did it un- to|these, Ye have|done it un- to|Me.”|
V:2
 z (A,[DF]A,) z (A,[DF]A,) | z (A,[DF]A,) z (A,[DF]A,) | z (A,[CE]A,) z (A,[CE]A,) | %3
 z (A,[CE]A, [CE]4) | z (A,[CE]A,) z (A,[CE]A,) | z (B,[DF]B,) z (B,[DF]B,) | %6
 z ([B,D^G][B,DG][B,DG]) z ([B,DG][B,DG][B,DG] | [CEA]6) ||[M:3/4] z2 | %9
 z ([A,DF] [A,DF][A,DF]) z [B,DG] | z ([G,DF] [G,DF][G,DF]) z [CEG] | %11
 z ([CEG] [CEG][CEG]) z [CEG] | z ([A,DF] [A,DF][A,DF]) z [A,DF] | %13
 z ([A,DF] [A,DF][A,DF]) z [B,DG] | z ([A,DF] [A,DF][A,DF]) z [A,DF] | z A, (DF) ([CEG][A,CE]) | %16
 [A,DF]6 |] %17
V:3
 [D,,D,]2 z2 [D,,D,]2 z2 | [D,,D,]2 z2 [D,,D,]2 z2 | [A,,,A,,]2 z2 [A,,,A,,]2 z2 | [A,,,A,,]6 z2 | %4
 [D,,D,]2 z2 [D,,D,]2 z2 | [B,,,B,,]2 z2 [B,,,B,,]2 z2 | [E,,E,]2 z2 [E,,E,]2 z2 | [A,,,A,,]6 || %8
[M:3/4] z2 | [D,,D,]2 z2 [G,,G,] z | [D,,D,]2 z2 [A,,,A,,] z | [A,,,A,,]2 z2 [A,,,A,,] z | %12
 [D,,D,]2 z2 [D,,D,] z | [D,,D,]2 z2 [G,,,G,,] z | [D,,D,]2 z2 [A,,,A,,] z | [A,,,A,,]6 | %16
 [D,,D,]6 |] %17

